resources/svg/check-square-light.svg

<svg xmlns="http://www.w3.org/2000/svg" viewBox="0 0 256 256" fill="currentColor"><path d="M176.33936,99.85705a6,6,0,0,1-.19727,8.4834l-58.666,56a5.99982,5.99982,0,0,1-8.28515,0l-29.334-28a6,6,0,0,1,8.28516-8.68066l25.19141,24.0459,54.52343-52.0459A5.99973,5.99973,0,0,1,176.33936,99.85705Zm45.66015-51.85693v160a14.01572,14.01572,0,0,1-14,14h-160a14.01573,14.01573,0,0,1-14-14v-160a14.01573,14.01573,0,0,1,14-14h160A14.01572,14.01572,0,0,1,221.99951,48.00012Zm-12,0a2.00229,2.00229,0,0,0-2-2h-160a2.00229,2.00229,0,0,0-2,2v160a2.00229,2.00229,0,0,0,2,2h160a2.00229,2.00229,0,0,0,2-2Z"/></svg>

<svg xmlns="http://www.w3.org/2000/svg" viewBox="0 0 256 256" fill="currentColor"><path d="M176.3,99.9a5.9,5.9,0,0,1-.2,8.4l-58.6,56a6.3,6.3,0,0,1-4.2,1.7,5.8,5.8,0,0,1-4.1-1.7l-29.3-28a5.9,5.9,0,0,1,8.2-8.6l25.2,24,54.6-52A5.9,5.9,0,0,1,176.3,99.9ZM222,48V208a14,14,0,0,1-14,14H48a14,14,0,0,1-14-14V48A14,14,0,0,1,48,34H208A14,14,0,0,1,222,48Zm-12,0a2,2,0,0,0-2-2H48a2,2,0,0,0-2,2V208a2,2,0,0,0,2,2H208a2,2,0,0,0,2-2Z"/></svg>
